lib/flags/cu-cuba.svg

<svg xmlns="http://www.w3.org/2000/svg" fill="none" aria-hidden="true" viewBox="0 0 42 30"><g id="Country=CU - Cuba, Size=sm (36x24)" filter="url(#filter0_dd_91_28909)"><g clip-path="url(#clip0_91_28909)"><g id="flag"><mask id="mask0_91_28909" width="36" height="24" x="3" y="2" maskUnits="userSpaceOnUse" style="mask-type:alpha"><rect id="mask" width="36" height="24" x="3" y="2" fill="white"/></mask><g mask="url(#mask0_91_28909)"><g id="contents"><path id="background" fill="#3D58DB" fill-rule="evenodd" d="M3 2V26H39V2H3Z" clip-rule="evenodd"/><g id="Object"><mask id="mask1_91_28909" width="36" height="24" x="3" y="2" maskUnits="userSpaceOnUse" style="mask-type:alpha"><path id="background_2" fill="white" fill-rule="evenodd" d="M3 2V26H39V2H3Z" clip-rule="evenodd"/></mask><g mask="url(#mask1_91_28909)"><path id="bottom" fill="#3D58DB" stroke="#F7FCFF" stroke-width="4" d="M3 10H1V12V16V18H3H39H41V16V12V10H39H3Z"/></g></g><path id="triangle" fill="#E31D1C" fill-rule="evenodd" d="M3 2V26L23.25 14L3 2Z" clip-rule="evenodd"/><mask id="mask2_91_28909" width="21" height="24" x="3" y="2" maskUnits="userSpaceOnUse" style="mask-type:alpha"><path id="triangle_2" fill="white" fill-rule="evenodd" d="M3 2V26L23.25 14L3 2Z" clip-rule="evenodd"/></mask><g mask="url(#mask2_91_28909)"><g id="mark"><path id="Star 5" fill="#F7FCFF" fill-rule="evenodd" d="M10.5238 16.217L6.39292 18.1549L8.40404 14.261L5.84131 12.1809L9.00535 12.0771L10.5238 8.5564L11.6826 12.0771H14.8413L12.736 14.261L14.4106 18.1549L10.5238 16.217Z" clip-rule="evenodd"/></g></g></g></g></g></g></g><defs><filter id="filter0_dd_91_28909" width="42" height="30" x="0" y="0" color-interpolation-filters="sRGB" filterUnits="userSpaceOnUse"><feFlood flood-opacity="0" result="BackgroundImageFix"/><feColorMatrix in="SourceAlpha" result="hardAlpha" values="0 0 0 0 0 0 0 0 0 0 0 0 0 0 0 0 0 0 127 0"/><feOffset dy="1"/><feGaussianBlur stdDeviation="1"/><feColorMatrix values="0 0 0 0 0.0627451 0 0 0 0 0.0941176 0 0 0 0 0.156863 0 0 0 0.06 0"/><feBlend in2="BackgroundImageFix" result="effect1_dropShadow_91_28909"/><feColorMatrix in="SourceAlpha" result="hardAlpha" values="0 0 0 0 0 0 0 0 0 0 0 0 0 0 0 0 0 0 127 0"/><feOffset dy="1"/><feGaussianBlur stdDeviation="1.5"/><feColorMatrix values="0 0 0 0 0.0627451 0 0 0 0 0.0941176 0 0 0 0 0.156863 0 0 0 0.1 0"/><feBlend in2="effect1_dropShadow_91_28909" result="effect2_dropShadow_91_28909"/><feBlend in="SourceGraphic" in2="effect2_dropShadow_91_28909" result="shape"/></filter><clipPath id="clip0_91_28909"><rect width="36" height="24" x="3" y="2" fill="white" rx="2"/></clipPath></defs></svg>

<svg xmlns="http://www.w3.org/2000/svg" fill="none" aria-hidden="true" viewBox="0 0 42 30"><g filter="url(#a)"><g clip-path="url(#b)"><mask id="c" width="36" height="24" x="3" y="2" maskUnits="userSpaceOnUse" style="mask-type:alpha"><path fill="#fff" d="M3 2h36v24H3z"/></mask><g mask="url(#c)"><path fill="#3D58DB" fill-rule="evenodd" d="M3 2v24h36V2H3Z" clip-rule="evenodd"/><mask id="d" width="36" height="24" x="3" y="2" maskUnits="userSpaceOnUse" style="mask-type:alpha"><path fill="#fff" fill-rule="evenodd" d="M3 2v24h36V2H3Z" clip-rule="evenodd"/></mask><g mask="url(#d)"><path fill="#3D58DB" stroke="#F7FCFF" stroke-width="4" d="M3 10H1v8h40v-8H3Z"/></g><path fill="#E31D1C" fill-rule="evenodd" d="M3 2v24l20.25-12L3 2Z" clip-rule="evenodd"/><mask id="e" width="21" height="24" x="3" y="2" maskUnits="userSpaceOnUse" style="mask-type:alpha"><path fill="#fff" fill-rule="evenodd" d="M3 2v24l20.25-12L3 2Z" clip-rule="evenodd"/></mask><g mask="url(#e)"><path fill="#F7FCFF" fill-rule="evenodd" d="m10.524 16.217-4.131 1.938 2.011-3.894-2.563-2.08 3.164-.104 1.519-3.52 1.159 3.52h3.158l-2.105 2.184 1.675 3.894-3.887-1.938Z" clip-rule="evenodd"/></g></g></g></g><defs><clipPath id="b"><rect width="36" height="24" x="3" y="2" fill="#fff" rx="2"/></clipPath><filter id="a" width="42" height="30" x="0" y="0" color-interpolation-filters="sRGB" filterUnits="userSpaceOnUse"><feFlood flood-opacity="0" result="BackgroundImageFix"/><feColorMatrix in="SourceAlpha" result="hardAlpha" values="0 0 0 0 0 0 0 0 0 0 0 0 0 0 0 0 0 0 127 0"/><feOffset dy="1"/><feGaussianBlur stdDeviation="1"/><feColorMatrix values="0 0 0 0 0.0627451 0 0 0 0 0.0941176 0 0 0 0 0.156863 0 0 0 0.06 0"/><feBlend in2="BackgroundImageFix" result="effect1_dropShadow_91_28909"/><feColorMatrix in="SourceAlpha" result="hardAlpha" values="0 0 0 0 0 0 0 0 0 0 0 0 0 0 0 0 0 0 127 0"/><feOffset dy="1"/><feGaussianBlur stdDeviation="1.5"/><feColorMatrix values="0 0 0 0 0.0627451 0 0 0 0 0.0941176 0 0 0 0 0.156863 0 0 0 0.1 0"/><feBlend in2="effect1_dropShadow_91_28909" result="effect2_dropShadow_91_28909"/><feBlend in="SourceGraphic" in2="effect2_dropShadow_91_28909" result="shape"/></filter></defs></svg>
